public/logos/grubl.svg

<svg preserveAspectRatio="xMidYMid meet" width="100%" height="100%" overflow="visible" style="display: block;" viewBox="0 0 80 80" fill="none" xmlns="http://www.w3.org/2000/svg">
<g id="Logo">
<g id="Text">
<path d="M15.417 32.917C21.5208 32.9171 21.792 37.1253 21.792 38.417H17.8125C17.7014 37.7087 17.2917 36.2922 15.417 36.292C13.2712 36.292 12.625 37.6462 12.625 40.4795C12.625 43.3126 13.1879 44.625 15.417 44.625C17.2001 44.6248 17.882 43.1385 18 42.3955H15V39.9375H21.6875V47.583H18.625L18.333 44.167C17.7287 47.625 14.7496 48.5833 11.8955 47.625C9.0416 46.6666 8.60449 43.6662 8.60449 40.708C8.60452 37.7496 9.00056 32.917 15.417 32.917Z" fill="var(--fill-0, white)"/>
<path fill-rule="evenodd" clip-rule="evenodd" d="M50.833 37.833C51.1664 37.0622 51.963 35.7295 54.4795 35.7295C58.0001 35.7296 59.375 38.1463 59.375 41.667C59.3749 45.5 57.6042 47.9373 54.4795 47.9375C51.9796 47.9375 50.8962 46.4375 50.667 45.6875L50.3955 47.583H47.0205V32.125H50.833V37.833ZM53.1455 38.792C51.604 38.7922 50.75 40.1879 50.75 41.667C50.7501 43.3334 51.4583 44.6668 53.1455 44.667C54.8329 44.667 55.4579 43.396 55.458 41.667C55.458 39.9378 54.6872 38.792 53.1455 38.792Z" fill="var(--fill-0, white)"/>
<path d="M37.3125 42.375C37.3125 43.4583 37.8958 44.542 39.25 44.542C40.6042 44.542 41.0625 42.9163 41.0625 42.083V35.958H44.958V47.583H41.6455L41.292 45.5C41.0628 46.5 39.8958 47.8545 37.5625 47.8545C33.8542 47.8545 33.5 44.8122 33.5 43.208V35.958H37.3125V42.375Z" fill="var(--fill-0, white)"/>
<path d="M64.875 47.583H60.958V32.125H64.875V47.583Z" fill="var(--fill-0, white)"/>
<path d="M32.042 39.75H29.9375C28.1875 39.75 27.708 41.25 27.708 41.875V47.5625H23.7705V35.958H26.8545L27.417 38.583C27.891 36.0315 29.784 35.808 30.585 35.792H32.042V39.75Z" fill="var(--fill-0, white)"/>
</g>
<rect id="Fullstop " x="67.625" y="43.875" width="3.75" height="3.70833" fill="var(--fill-0, #FF8C31)"/>
<rect id="Rectangle" x="61.8333" width="18.1667" height="18.1667" fill="var(--fill-0, #FF8AFD)"/>
<rect id="Rectangle_2" x="54.8333" width="7" height="7" fill="var(--fill-0, #007DF9)"/>
<rect id="Rectangle_3" x="16.375" y="72.1667" width="7.83333" height="7.83333" fill="var(--fill-0, #007DF9)"/>
<rect id="Rectangle_4" y="63.625" width="16.375" height="16.375" fill="var(--fill-0, #FF8C31)"/>
</g>
</svg>

<svg xmlns="http://www.w3.org/2000/svg" fill="none" viewBox="0 0 80 80">
  <g clip-path="url(#a)">
    <path fill="#000" d="M0 12C0 5.373 5.373 0 12 0h56c6.627 0 12 5.373 12 12v56c0 6.627-5.373 12-12 12H12C5.373 80 0 74.627 0 68V12Z"/>
    <path fill="#fff" d="M15.417 32.917c6.104 0 6.375 4.208 6.375 5.5h-3.98c-.11-.708-.52-2.125-2.395-2.125-2.146 0-2.792 1.354-2.792 4.188 0 2.833.563 4.145 2.792 4.145 1.783 0 2.465-1.486 2.583-2.23h-3v-2.458h6.688v7.646h-3.063l-.292-3.416c-.604 3.458-3.583 4.416-6.437 3.458-2.854-.958-3.292-3.959-3.292-6.917 0-2.958.397-7.791 6.813-7.791Z"/>
    <path fill="#fff" fill-rule="evenodd" d="M50.833 37.833c.333-.77 1.13-2.103 3.647-2.103 3.52 0 4.895 2.416 4.895 5.937 0 3.833-1.77 6.27-4.895 6.27-2.5 0-3.584-1.5-3.813-2.25l-.272 1.896H47.02V32.125h3.813v5.708Zm2.313.959c-1.542 0-2.396 1.396-2.396 2.875 0 1.666.708 3 2.395 3 1.688 0 2.313-1.271 2.313-3 0-1.73-.77-2.875-2.313-2.875Z" clip-rule="evenodd"/>
    <path fill="#fff" d="M37.313 42.375c0 1.083.583 2.167 1.937 2.167s1.813-1.626 1.813-2.459v-6.125h3.895v11.625h-3.313l-.353-2.083c-.23 1-1.396 2.355-3.73 2.355-3.708 0-4.062-3.043-4.062-4.647v-7.25h3.813v6.417Zm27.562 5.208h-3.917V32.125h3.917v15.458ZM32.042 39.75h-2.105c-1.75 0-2.229 1.5-2.229 2.125v5.688H23.77V35.957h3.085l.562 2.625c.474-2.551 2.367-2.775 3.168-2.791h1.457v3.958Z"/>
    <path fill="#FF8C31" d="M67.625 43.875h3.75v3.708h-3.75z"/>
    <path fill="#FF8AFD" d="M61.834 0h18.167v18.167H61.834z"/>
    <path fill="#007DF9" d="M54.834 0h7v7h-7zM16.375 72.167h7.833V80h-7.833z"/>
    <path fill="#FF8C31" d="M0 63.625h16.375V80H0z"/>
  </g>
  <defs>
    <clipPath id="a">
      <path fill="#fff" d="M0 12C0 5.373 5.373 0 12 0h56c6.627 0 12 5.373 12 12v56c0 6.627-5.373 12-12 12H12C5.373 80 0 74.627 0 68V12Z"/>
    </clipPath>
  </defs>
</svg>
